!!!!SEGMENT: pl-kk--kk-i-3--007-001_anonim--officium-secundum-rorate-caeli.krn
!!!cenid: 15xx:589
!!!COM: Anonim
!!!COM-rismID: pe30004985
!!!CDT:
!!!CNT:
!!!OPR: Officium Secundum
!!!OTL: Rorate caeli
!!!OMV: 001
!!!PDT:
!!!AGN:
!!!SMS-siglum: PL-Kk
!!!SMS-shelfmark: Kk.I.3
!!!SMS-shelfwork: 007-001 M
!!!SMS-variant:
!!!SMS-altvar:
!!!NIFC-rismSourceID: 1001145493
!!!NIFC-rismChildID: 1001145508
!!!NIFC-islandoraID: pl-kk:1170
!!!URL-pdf-islandora: https://repozytorium.nifc.pl/islandora/object/pl-kk%3A1170/datastream/PDF/view
!!!URL-scan: https://polish.musicsources.pl/pl/lokalizacje/galeria/rekopisy/5919 @EN{Scan on Polish Music Sources Website} @PL{Skany w portalu Dziedzictwo Muzyki Polskiej w otwartym dostępie}
!!!ONB-nifc: UWAGA: Discantus (s. 28v-29v, skan 0031-0032), Tenor (s. 21v-22r, skan 0194), Bassus (s. 25v-26v, skan 0329-0330)
!!!AIN: 1 bass 1 tenor 1 vox
!!!key: d:dor
**kern	**text	**kern	**text	**kern	**text
*part3	*part3	*part2	*part2	*part1	*part1
*staff3	*staff3	*staff2	*staff2	*staff1	*staff1
*I"Bassus	*	*I"Tenore	*	*I"Discantus	*
*I'B	*	*I'T	*	*I'S	*
*Ibass	*	*Itenor	*	*Ivox	*
*ICvox	*	*ICvox	*	*ICvox	*
*clefF4	*	*clefC4	*	*clefC3	*
*k[]	*	*k[]	*	*k[]	*
*d:dor	*	*d:dor	*	*d:dor	*
*M2/1	*	*M2/1	*	*M2/1	*
*met(C|)	*	*	*	*met(C)	*
=1-	=1-	=1-	=1-	=1-	=1-
*lig	*	*	*	*lig	*
1G	Ro-	1C	Ro-	1c	Ro-
1F	.	1D	.	1A	.
*Xlig	*	*	*	*Xlig	*
=2-	=2-	=2-	=2-	=2-	=2-
1D	-ra-	1D	-ra-	1d	-ra-
2AA/	.	1A	.	2e/	.
2D/	.	.	.	1f\	.
=3-	=3-	=3-	=3-	=3-	=3-
1C	.	1c	.	.	.
.	.	.	.	2e/	.
1F	-te	1A	-te	1f	-te
=4-	=4-	=4-	=4-	=4-	=4-
*lig	*	*lig	*	*	*
1F	coe-	1A	coe-	1c	coe-
1D	.	1B	.	1d	.
*Xlig	*	*Xlig	*	*	*
=5-	=5-	=5-	=5-	=5-	=5-
*lig	*	*lig	*	*lig	*
1C	.	1c	.	1e	.
1D	.	1A	-li	1d	.
*Xlig	*	*Xlig	*	*Xlig	*
=6-	=6-	=6-	=6-	=6-	=6-
*lig	*	*lig	*	*	*
1D	-li	1A	de-	1d	-li
*	*	*	*	*custos:c	*
1E	.	1G	.	2B,/	de
!	!	!	!	!LO:LB:g=original	!
.	.	.	.	2c/	.
*Xlig	*	*Xlig	*	*	*
=7-	=7-	=7-	=7-	=7-	=7-
*lig	*	*	*	*	*
1D	de-	1A	.	1d	.
*custos:C	*	*	*	*	*
1C	.	1c	.	1e	.
*Xlig	*	*	*	*	*
=8-	=8-	=8-	=8-	=8-	=8-
!LO:LB:g=original	!	!	!	!	!
1C	-ſ-	1c	-ſu-	1e	ſu-
*	*	*custos:C	*	*	*
1G	-ſu-	1B	.	2d/	.
.	.	.	.	1g\	.
=9-	=9-	=9-	=9-	=9-	=9-
*lig	*	*	*	*	*
!	!	!LO:LB:g=original	!	!	!
1A	.	1c	.	.	.
*	*	*	*	*2\right	*
.	.	.	.	2f\	.
*	*	*lig	*	*	*
1G	.	1d	.	1g	.
*Xlig	*	*	*	*	*
=10-	=10-	=10-	=10-	=10-	=10-
*lig	*	*	*	*	*
1C	.	1c	.	1e	.
*	*	*Xlig	*	*	*
1G	.	1d	.	1g	.
*Xlig	*	*	*	*	*
=11-	=11-	=11-	=11-	=11-	=11-
*lig	*	*lig	*	*	*
1G	-per	1d	-per	1g	-per
1C	.	1c	.	1e	.
*Xlig	*	*Xlig	*	*	*
=12-	=12-	=12-	=12-	=12-	=12-
1E	et	1G	et	2e\	et
.	.	.	.	2c/	nu-
*lig	*	*	*	*	*
1E	nu-	1B	nu-	1d	.
=13-	=13-	=13-	=13-	=13-	=13-
*	*	*lig	*	*	*
1D	.	1c	.	1e	.
*Xlig	*	*	*	*	*
1D	.	1B	.	2f\	.
*	*	*Xlig	*	*	*
*	*	*	*	*custos:f	*
.	.	.	.	1g\	.
=14-	=14-	=14-	=14-	=14-	=14-
1D	-bes	1A	-bes	.	.
!	!	!	!	!LO:LB:g=original	!
.	.	.	.	2f/	.
*lig	*	*	*	*	*
1G	plu-	1B	plu-	1g	-bes
=15-	=15-	=15-	=15-	=15-	=15-
*	*	*lig	*	*	*
1C	.	1c	.	1e	plu-
*Xlig	*	*	*	*	*
1D	.	1B	.	1f	-ant
*	*	*Xlig	*	*	*
=16-	=16-	=16-	=16-	=16-	=16-
1D	-ant	1A	-ant	2f\	.
.	.	.	.	1d	iu-
*	*	*lig	*	*	*
1E	iu-	1G	iu-	.	.
.	.	.	.	2c/	.
=17-	=17-	=17-	=17-	=17-	=17-
*custos:F	*	*	*	*	*
2D/	.	1F	.	2d/	.
*	*	*Xlig	*	*	*
!LO:LB:g=original	!	!	!	!	!
1F	.	.	.	1c	.
*	*	*lig	*	*	*
.	.	1A	.	.	.
*2\right	*	*	*	*	*
2F\	.	.	.	1f\	.
=18-	=18-	=18-	=18-	=18-	=18-
1C	.	1G	.	.	.
.	.	.	.	2e\	.
1D	.	1F	.	2d/	.
.	.	.	.	1f\	.
*	*	*Xlig	*	*	*
=19-	=19-	=19-	=19-	=19-	=19-
*	*	*lig	*	*	*
1C	.	1G	.	.	.
.	.	.	.	2e\	.
1D	.	1F	.	1d	.
*	*	*Xlig	*	*	*
=20-	=20-	=20-	=20-	=20-	=20-
*	*	*custos:F	*	*	*
1F	-ſtu(m)	1F	-ſtum	1c	-ſtu(m)
!	!	!LO:LB:g=original	!	!	!
2F\	a-	1F	ap-	2c/	ap-
*	*	*	*	*custos:e	*
2D/	-pe-	.	.	2d/	-pe-
=21-	=21-	=21-	=21-	=21-	=21-
!	!	!	!	!LO:LB:g=original	!
2C/	.	1G	-pe-	1e	-ri-
2E/	-ri-	.	.	.	.
1D	-a-	1A	-ra-	1f	-a-
=22-	=22-	=22-	=22-	=22-	=22-
*lig	*	*	*	*lig	*
1D	.	1A	.	1f	.
1C	-tur	1c	.	1e	.
*Xlig	*	*	*	*Xlig	*
=23-	=23-	=23-	=23-	=23-	=23-
1C	.	1G	-tur	1e	-tur
*lig	*	*	*	*lig	*
1D	ter-	1F	ter-	1f	ter-
=24-	=24-	=24-	=24-	=24-	=24-
*	*	*lig	*	*	*
1C	.	1G	.	1e	.
*Xlig	*	*	*	*Xlig	*
1D	.	1F	.	1f	.
=25-	=25-	=25-	=25-	=25-	=25-
*custos:A	*	*	*	*	*
2D/	.	1E	.	2f\	.
*	*	*Xlig	*	*	*
!LO:LB:g=original	!	!	!	!	!
1A	.	.	.	1d	.
.	.	1D	-ra	.	.
1F\	-ra	.	.	2d/	-ra
=26-	=26-	=26-	=26-	=26-	=26-
.	.	1F	et	1c	et
2F\	et	.	.	.	.
1D	ger-	1F	ger-	2d/	.
.	.	.	.	1f\	ger-
=27-	=27-	=27-	=27-	=27-	=27-
1C	.	1G	-mi-	.	.
.	.	.	.	2e\	.
1D	.	1F	-net	1d	.
=28-	=28-	=28-	=28-	=28-	=28-
*	*	*lig	*	*	*
1C	.	1G	.	1e	.
1D	-net	1F	.	1f	-mi-
=29-	=29-	=29-	=29-	=29-	=29-
*	*	*	*	*lig	*
1F	.	1E	.	1f	-net
*	*	*Xlig	*	*	*
*	*	*	*	*custos:c	*
1A	ſal-	1D	ſal-	1d	.
*	*	*	*	*Xlig	*
=30-	=30-	=30-	=30-	=30-	=30-
*	*	*custos:C	*	*	*
!	!	!	!	!LO:LB:g=original	!
2A\	-va-	1F	.	1c	ſal-
1F	.	.	.	.	.
!	!	!LO:LB:g=original	!	!	!
.	.	1C	-va-	1c	-va-
2E/	.	.	.	.	.
=31-	=31-	=31-	=31-	=31-	=31-
*	*	*lig	*	*	*
1F	.	1F	.	1A	-to-
2F/	.	1E	.	2A/	.
1BB/	-to-	.	.	1d\	.
*	*	*Xlig	*	*	*
=32-	=32-	=32-	=32-	=32-	=32-
.	.	1D	-to-	.	.
2BB/	.	.	.	2d/	.
*custos:D	*	*	*	*	*
1C	.	1E	.	1c	.
=33-	=33-	=33-	=33-	=33-	=33-
*	*	*lig	*	*	*
!LO:LB:g=original	!	!	!	!	!
1D	.	1F	.	1A	.
2D/	.	1E	.	2A/	.
1GG/	.	.	.	1B-X/	.
*	*	*Xlig	*	*	*
=34-	=34-	=34-	=34-	=34-	=34-
.	.	1D	-rem	.	.
2GG/	.	.	.	2B-X/	.
1D;;	-rem	1D	.	1Al;>	-rem
=35||-	=35||-	=35||-	=35||-	=35||-	=35||-
1F	Coe-	1F	Coe-	1f	Cae-
*lig	*	*	*	*lig	*
1C	-li	1G	-li	1e	-li
=36-	=36-	=36-	=36-	=36-	=36-
1FF	.	1A	.	1f	.
*Xlig	*	*	*	*Xlig	*
*	*	*	*	*custos:f	*
1F	e-	1A	e-	1f	e-
=37-	=37-	=37-	=37-	=37-	=37-
!	!	!	!	!LO:PB:g=original	!
1F	-nar-	1A	-nar-	1f	-na-
1F	-ra(n)t	1A	-rant	1c	-ra(n)t
=38-	=38-	=38-	=38-	=38-	=38-
*lig	*	*	*	*	*
1D	glo-	1A	glo-	1d	glo-
*	*	*custos:A	*	*	*
1C	.	1c	.	1e	.
*Xlig	*	*	*	*	*
=39-	=39-	=39-	=39-	=39-	=39-
!	!	!LO:LB:g=original	!	!	!
1D	-ri-	1A	-ri-	1f	-ri-
*custos:AA	*	*	*	*	*
1D	-a(m)	1A	-am	1f	-a(m)
=40-	=40-	=40-	=40-	=40-	=40-
!LO:PB:g=original	!	!	!	!	!
1AA	de-	1A	de-	0e	de-
1C	.	1G	.	.	.
=41-	=41-	=41-	=41-	=41-	=41-
*lig	*	*	*	*lig	*
1C	-i	1G	-i	1e	-i
1FF	.	1A	.	1f	.
*Xlig	*	*	*	*Xlig	*
=42-	=42-	=42-	=42-	=42-	=42-
*	*	*lig	*	*	*
1C	et	1G	et	1e	et
1D	o-	1F	.	2f\	.
.	.	.	.	1d\	o-
*	*	*Xlig	*	*	*
=43-	=43-	=43-	=43-	=43-	=43-
*lig	*	*	*	*	*
1E	-pe-	1G	o-	.	.
.	.	.	.	2c/	.
1D	.	1A	.	1d	-pe-
*Xlig	*	*	*	*	*
=44-	=44-	=44-	=44-	=44-	=44-
1D	.	1A	-pe-	1d	-ra
1D	-ra	1A,	-ra	1f	ma-
=45-	=45-	=45-	=45-	=45-	=45-
2C/	ma-	1A	ma-	2e\	.
*	*	*	*	*custos:e	*
2D/	.	.	.	2f\	.
!	!	!	!	!LO:LB:g=original	!
1AA	-nu-	1A	-nu-	2e\	.
.	.	.	.	1d\	.
=46-	=46-	=46-	=46-	=46-	=46-
1AA	-u(m)	1A,	-u(m)	.	.
.	.	.	.	2c/	-nu-
1D	e-	1A	e-	1d	-u(m)
=47-	=47-	=47-	=47-	=47-	=47-
1D	-ius	1A	-ius	1d,	e-
1F	a-	1A	a-	1c	-ius
=48-	=48-	=48-	=48-	=48-	=48-
*custos:C	*	*	*	*	*
2D/	-nu(n)-	1A	-nu(n)-	2d/	a-
!LO:LB:g=original	!	!	!	!	!
2C/	-ci-	.	.	2e\	-nu(n)-
*	*	*custos:A	*	*	*
1D	-at	1A	-ca-	1f	-ca-
=49-	=49-	=49-	=49-	=49-	=49-
!	!	!LO:PB:g=original	!	!	!
1D	.	1A	-ant	1f	.
*lig	*	*	*	*lig	*
1D	.	1B	.	1f	.
=50-	=50-	=50-	=50-	=50-	=50-
*	*	*lig	*	*	*
1C	.	1c	.	1e	.
*Xlig	*	*	*	*Xlig	*
1F	fir-	1A	.	1f	-ant
*	*	*Xlig	*	*	*
=51-	=51-	=51-	=51-	=51-	=51-
*	*	*	*	*lig	*
1C	-ma-	1G	fir-	1e	fir-
1D	-me(n)-	1F	-ma-	1d	.
*	*	*	*	*Xlig	*
=52-	=52-	=52-	=52-	=52-	=52-
*lig	*	*lig	*	*	*
1D	.	1F	-me(n)-	2A/	.
.	.	.	.	1d	-ma-
1AA	.	1E	.	.	.
.	.	.	.	2c/	-men-
*Xlig	*	*Xlig	*	*	*
=53-	=53-	=53-	=53-	=53-	=53-
*	*	*	*	*custos:c	*
1D;;	-tu(m)	1D	-tum	1d;>	-tu(m)
1ryy	.	1D	.	1ryy	.
=54||	=54||	=54||	=54||	=54||	=54||
!	!	!	!	!LO:LB:g=original	!
1F	Glo-	1F	Glo-	2c/	Glo-
.	.	.	.	1f	-ri-
*lig	*	*	*	*	*
1C	-ri-	1G	-ri-	.	.
.	.	.	.	2e\	.
=55-	=55-	=55-	=55-	=55-	=55-
1FF	.	1A	-a	1f	-a
*Xlig	*	*	*	*	*
1FF	-a	1A,	.	1f	.
=56-	=56-	=56-	=56-	=56-	=56-
1F	p(at)-	1A	pa-	1c	pa-
*custos:D	*	*	*	*	*
2F\	-ri	1A,	-tri	2c/	-tri
!LO:LB:g=original	!	!	!	!	!
1D\	et	.	.	1d\	et
=57-	=57-	=57-	=57-	=57-	=57-
.	.	1A	et	.	.
2C/	fi-	.	.	2e\	.
1D	-li-	1A	fi-	1f	fi-
=58-	=58-	=58-	=58-	=58-	=58-
1AA	.	1A	-li-	2e\	.
.	.	.	.	1d\	-li-
1AA	-o	1A	-o	.	.
.	.	.	.	2c/	-o
=59-	=59-	=59-	=59-	=59-	=59-
*	*	*custos	*	*	*
1D	et	1A	et	2d/	.
.	.	.	.	2f\	et
!	!	!LO:LB:g=original	!	!	!
2C/	ſpi-	1A	ſpi-	2e\	.
*	*	*	*	*custos:d	*
2AA/	-ri-	.	.	2c/	ſpi-
=60-	=60-	=60-	=60-	=60-	=60-
*lig	*	*	*	*	*
!	!	!	!	!LO:LB:g=original	!
1D	-tu-	1A	-ri-	2d/	.
.	.	.	.	1f	-ri-
1C	.	1c	.	.	.
.	.	.	.	2e\	-tu-
*Xlig	*	*	*	*	*
=61-	=61-	=61-	=61-	=61-	=61-
0FF	-i	1A	-tu-	1f	-i
.	.	1A,	-i	1f	.
=62-	=62-	=62-	=62-	=62-	=62-
*	*	*lig	*	*	*
1FF	ſan-	1A	ſan-	1c	ſan-
2C/	.	1G	.	2c/	.
2GG/	.	.	.	2Bny/	.
*	*	*Xlig	*	*	*
=63-	=63-	=63-	=63-	=63-	=63-
1C	.	1G	-cto	1c	.
1FF	-cto	1A	.	1c	-cto
=64-	=64-	=64-	=64-	=64-	=64-
*	*	*lig	*	*lig	*
1C	ſi-	1G	ſi-	1e	si-
*custos:GG	*	*	*	*	*
1D	.	1F	.	1d	.
*	*	*Xlig	*	*Xlig	*
=65-	=65-	=65-	=65-	=65-	=65-
!LO:LB:g=original	!	!	!	!	!
2GG/	-cut	1G	-cut	2d/	.
1C/	.	.	.	1c\	-cut
.	.	1A,	.	.	.
2C/	e-	.	.	2c/	e-
=66-	=66-	=66-	=66-	=66-	=66-
1FF	-rat	1A	e-	1c	-rat
1FF	.	1A,	-rat	1c	.
=67-	=67-	=67-	=67-	=67-	=67-
*	*	*	*	*custos:d	*
2FF/	in	1A	in	2c/	in
!	!	!	!	!LO:LB:g=original	!
1F\	prin-	.	.	1d\	prin-
.	.	1A	prin-	.	.
2E/	-ci-	.	.	2e\	.
=68-	=68-	=68-	=68-	=68-	=68-
2D/	-pi-	1A	-ci-	2f\	.
2C/	.	.	.	2e\	-ci-
2D/	-o	1A	-pi-	2d\	-pi-
2F\	.	.	.	1c\	-o
=69-	=69-	=69-	=69-	=69-	=69-
2E\	.	1A	-o	.	.
1D\	et	.	.	1d\	et
*	*	*custos:a	*	*	*
.	.	1A	et	.	.
1F\	.	.	.	2c/	nu(n)c
=70-	=70-	=70-	=70-	=70-	=70-
!	!	!LO:LB:g=original	!	!	!
.	.	1A	nu(n)c	2d/	.
2D/	.	.	.	2f\	.
1E	.	1c	.	2e\	.
.	.	.	.	2c/	.
=71-	=71-	=71-	=71-	=71-	=71-
1D	nu(n)c	1A	et	1d	et
*custos:C	*	*	*	*	*
*	*	*lig	*	*	*
1F	et	1A	ſem-	2c/	.
.	.	.	.	2f\	ſem-
=72-	=72-	=72-	=72-	=72-	=72-
!LO:LB:g=original	!	!	!	!	!
2C/	.	1G	.	2e\	.
2D/	ſem-	.	.	1d\	.
*	*	*Xlig	*	*	*
1E	-p(er)	1G	-per	.	.
*	*	*	*	*custos:d	*
.	.	.	.	2c/	.
=73-	=73-	=73-	=73-	=73-	=73-
!	!	!	!	!LO:PB:g=original	!
1D	.	1A	.	1d	-per
*	*	*lig	*	*	*
2GG/	et	1G	et	2d/	et
2C/	.	.	.	2e/	.
=74-	=74-	=74-	=74-	=74-	=74-
2AA/	in	1F	.	2c/	in
2D/	.	.	.	2f\	.
*	*	*Xlig	*	*	*
2GG/	ſe-	1G	in	2d/	.
2C/	.	.	.	2e/	.
=75-	=75-	=75-	=75-	=75-	=75-
2AA/	.	1A	.	2c/	.
2D/	.	.	.	2f\	ſe-
2C/	.	1A	ſe-	2e/	.
1F\	.	.	.	2c/	.
=76-	=76-	=76-	=76-	=76-	=76-
.	.	1A	-cu-	1d	-cu-
2D/	-cu-	.	.	.	.
*lig	*	*	*	*	*
1A	-la	1A	-la	1e	-la
=77-	=77-	=77-	=77-	=77-	=77-
1D	.	1A	ſe-	1f	ſe-
*Xlig	*	*	*	*lig	*
1F	ſe-	1A	-cu-	1f	-cu-
=78-	=78-	=78-	=78-	=78-	=78-
*custos:C	*	*	*	*	*
1G	-cu-	1B	.	1d	.
*	*	*lig	*	*Xlig	*
!LO:PB:g=original	!	!	!	!	!
1C	.	1d	.	1e	.
=79-	=79-	=79-	=79-	=79-	=79-
*	*	*	*	*custos:b	*
1D	-lo-	1B	.	1d	-lo-
*	*	*Xlig	*	*	*
!	!	!	!	!LO:LB:g=original	!
1GG	.	1G	-lo-	1B	-ru(m)
=80-	=80-	=80-	=80-	=80-	=80-
1BB	.	1F	-ru(m)	1d	.
1D	-ru(m)	1F	A-	2A/	A-
.	.	.	.	1d\	.
=81-	=81-	=81-	=81-	=81-	=81-
*	*	*lig	*	*	*
1AA	.	1D	.	.	.
.	.	.	.	2c/	.
2FF/	A-	1D	.	1d	.
1GG/	.	.	.	.	.
*	*	*Xlig	*	*	*
=82-	=82-	=82-	=82-	=82-	=82-
.	.	1D	-men	2d/	.
2AA/	.	.	.	2c/	.
2BB/	.	1D	.	1B	.
2C/	.	.	.	.	.
=83-	=83-	=83-	=83-	=83-	=83-
1D;;	-men	0ryy	.	1A;;	-men
1ryy	.	.	.	1ryy	.
=-	=-	=-	=-	=-	=-
*-	*-	*-	*-	*-	*-
!!!system-decoration: [(s1,s2,s3)]
!!!RDF**kern: l = terminal long
!!!ENC: Andrzej Gręziak
!!!END: 2021-12-29
!!!ENC: Marta Chmielewska
!!!END: 2022-01-03
!!!YEC: Copyright 2022 Narodowy Instytut Fryderyka Chopina (https://polishscores.org)
!!!YEM: License CC-BY-4.0 (https://creativecommons.org/licenses/by/4.0)
